src/images/icons/icon-dopprod-3.svg

<svg width="44" height="56" viewBox="0 0 44 56" fill="none" xmlns="http://www.w3.org/2000/svg">
<path d="M34.9 40.9H33.3C33.3 37.1 28.3 32.6 21.9 32.6C15.5 32.6 10.6 37 10.6 40.9H9C9 36.2 14.5 31 22 31C29.5 31 34.9 36.2 34.9 40.9Z" fill="#808080"/>
<path d="M21.9999 30.1001C18.1999 30.1001 15.0999 27.1001 15.0999 23.5001C15.0999 19.8001 18.1999 16.9001 21.9999 16.9001C25.7999 16.9001 28.8999 19.9001 28.8999 23.5001C28.7999 27.1001 25.6999 30.1001 21.9999 30.1001ZM21.9999 18.4001C19.0999 18.4001 16.6999 20.7001 16.6999 23.4001C16.6999 26.1001 19.0999 28.4001 21.9999 28.4001C24.8999 28.4001 27.2999 26.1001 27.2999 23.4001C27.2999 20.7001 24.8999 18.4001 21.9999 18.4001Z" fill="#808080"/>
<path d="M31.9999 31.3H28.6999V29.7001H31.9999C32.7999 29.7001 33.4999 29.0001 33.4999 28.2001V25.1H34.9999V28.2001C34.9999 29.9001 33.5999 31.3 31.9999 31.3ZM15.3999 31.3H11.9999C10.2999 31.3 8.8999 29.9001 8.8999 28.2001V25.1H10.4999V28.2001C10.4999 29.0001 11.1999 29.7001 11.9999 29.7001H15.2999V31.3H15.3999ZM34.9999 20.5H33.3999V17.4C33.3999 16.6 32.6999 15.9 31.8999 15.9H28.5999V14.3H31.9999C33.6999 14.3 35.0999 15.7 35.0999 17.4V20.5H34.9999ZM10.5999 20.5H8.9999V17.4C8.9999 15.7 10.3999 14.3 12.0999 14.3H15.3999V15.9H11.9999C11.1999 15.9 10.4999 16.6 10.4999 17.4V20.5H10.5999Z" fill="#808080"/>
<path d="M39.3 56H4.7C2.1 56 0 53.9 0 51.3V4.7C0 2.1 2.1 0 4.7 0H39.3C41.9 0 44 2.1 44 4.7V51.2C44 53.9 41.9 56 39.3 56ZM4.7 1.6C3 1.6 1.6 3 1.6 4.7V51.2C1.6 52.9 3 54.3 4.7 54.3H39.3C41 54.3 42.4 52.9 42.4 51.2V4.7C42.4 3 41 1.6 39.3 1.6H4.7Z" fill="#808080"/>
</svg>

<svg xmlns="http://www.w3.org/2000/svg" width="44" height="56" fill="none" viewBox="0 0 44 56">
	<path fill="gray" d="M34.9 40.9h-1.6c0-3.8-5-8.3-11.4-8.3S10.6 37 10.6 40.9H9c0-4.7 5.5-9.9 13-9.9s12.9 5.2 12.9 9.9zM22 30.1c-3.8 0-6.9-3-6.9-6.6 0-3.7 3.1-6.6 6.9-6.6 3.8 0 6.9 3 6.9 6.6-.1 3.6-3.2 6.6-6.9 6.6zm0-11.7c-2.9 0-5.3 2.3-5.3 5s2.4 5 5.3 5 5.3-2.3 5.3-5-2.4-5-5.3-5zM32 31.3h-3.3v-1.6H32c.8 0 1.5-.7 1.5-1.5v-3.1H35v3.1c0 1.7-1.4 3.1-3 3.1zm-16.6 0H12c-1.7 0-3.1-1.4-3.1-3.1v-3.1h1.6v3.1c0 .8.7 1.5 1.5 1.5h3.3v1.6h.1zM35 20.5h-1.6v-3.1c0-.8-.7-1.5-1.5-1.5h-3.3v-1.6H32c1.7 0 3.1 1.4 3.1 3.1v3.1H35zm-24.4 0H9v-3.1c0-1.7 1.4-3.1 3.1-3.1h3.3v1.6H12c-.8 0-1.5.7-1.5 1.5v3.1h.1z"/>
	<path fill="gray" d="M39.3 56H4.7C2.1 56 0 53.9 0 51.3V4.7C0 2.1 2.1 0 4.7 0h34.6C41.9 0 44 2.1 44 4.7v46.5c0 2.7-2.1 4.8-4.7 4.8zM4.7 1.6C3 1.6 1.6 3 1.6 4.7v46.5c0 1.7 1.4 3.1 3.1 3.1h34.6c1.7 0 3.1-1.4 3.1-3.1V4.7c0-1.7-1.4-3.1-3.1-3.1H4.7z"/>
</svg>
